Hardware/libs/logo/cyclone_logoC.svg

<?xml version="1.0" encoding="UTF-8" standalone="no"?>
<!-- Created with Inkscape (http://www.inkscape.org/) -->

<svg
   xmlns:dc="http://purl.org/dc/elements/1.1/"
   xmlns:cc="http://creativecommons.org/ns#"
   xmlns:rdf="http://www.w3.org/1999/02/22-rdf-syntax-ns#"
   xmlns:svg="http://www.w3.org/2000/svg"
   xmlns="http://www.w3.org/2000/svg"
   xmlns:sodipodi="http://sodipodi.sourceforge.net/DTD/sodipodi-0.dtd"
   xmlns:inkscape="http://www.inkscape.org/namespaces/inkscape"
   sodipodi:docname="cyclone_logoC.dxf"
   height="216"
   width="234"
   inkscape:version="0.48.4 r9939"
   version="1.1"
   id="svg2985">
  <sodipodi:namedview
     pagecolor="#ffffff"
     bordercolor="#666666"
     borderopacity="1"
     objecttolerance="10"
     gridtolerance="10"
     guidetolerance="10"
     inkscape:pageopacity="0"
     inkscape:pageshadow="2"
     inkscape:window-width="1360"
     inkscape:window-height="706"
     id="namedview2987"
     showgrid="false"
     inkscape:zoom="1.6990205"
     inkscape:cx="-60.853335"
     inkscape:cy="73.667516"
     inkscape:window-x="-8"
     inkscape:window-y="-8"
     inkscape:window-maximized="1"
     inkscape:current-layer="svg2985" />
  <metadata
     id="metadata2991">
    <rdf:RDF>
      <cc:Work
         rdf:about="">
        <dc:format>image/svg+xml</dc:format>
        <dc:type
           rdf:resource="http://purl.org/dc/dcmitype/StillImage" />
        <dc:title></dc:title>
      </cc:Work>
    </rdf:RDF>
  </metadata>
  <defs
     id="defs2989" />
  <path
     style="fill:#000000"
     d="M 197.5,1.6875 186.9375,1.875 173.5,3.15625 160.03125,5.21875 146.75,8.03125 l -12.875,3.5 -12.28125,4.125 -11.46875,4.65625 -10.46875,5.15625 -9.25,5.59375 -1.875,1.3125 L 83,34.6875 l -5.3125,2.75 -5.0625,3.125 -4.8125,3.5 -8.78125,8 L 51.5,61.34375 48.28125,66.375 45.40625,71.6875 42.9375,77.21875 40.84375,83 39.21875,88.9375 38,95.0625 37.75,97.25 l 55.84375,0 1.09375,-2.0625 2.875,-3.4375 3.4375,-2.875 3.96875,-2.125 4.375,-1.375 4.6875,-0.46875 4.6875,0.46875 4.375,1.375 3.96875,2.125 3.4375,2.875 2.875,3.4375 2.125,3.96875 1.375,4.375 0.46875,4.6875 -0.46875,4.6875 -1.375,4.375 -2.125,3.96875 -2.875,3.4375 -3.4375,2.84375 -3.96875,2.15625 -4.375,1.34375 -4.6875,0.46875 -4.6875,-0.46875 -4.375,-1.34375 L 101,127.53125 97.5625,124.6875 94.6875,121.25 92.5625,117.28125 92.46875,117 l -54.875,0 1.21875,7.84375 2.15625,8.09375 2.9375,7.71875 3.6875,7.34375 4.375,6.84375 5,6.34375 5.59375,5.8125 -0.125,1.5 -0.6875,5.9375 -1.1875,4.9375 -1.84375,4.375 -2.625,4.25 -3.8125,4.28125 -4.46875,3.875 -7.46875,4.5 -8.71875,3.71875 -10.25,3.03125 -12.0625,2.4375 -2.34375,0.46875 0.46875,0.40625 7.375,1.78125 9.25,1.1875 20.8125,0 13.46875,-1.28125 13.46875,-2.0625 13.28125,-2.8125 12.875,-3.5 12.28125,-4.125 11.46875,-4.65625 10.46875,-5.15625 9.25,-5.59375 2.25,-1.625 5.4375,-2.375 5.25,-2.75 9.71875,-6.65625 8.625,-8 7.40625,-9.21875 6,-10.3125 2.4375,-5.5 2.03125,-5.71875 1.625,-5.875 1.15625,-6.09375 0.71875,-6.21875 0.25,-6.375 -0.4375,-8.59375 -1.3125,-8.34375 -2.125,-8 -2.90625,-7.65625 -3.625,-7.28125 -4.28125,-6.8125 -4.9375,-6.3125 -5.5,-5.78125 c 0,0 0.0269,-0.597659 0.15625,-1.90625 0.12935,-1.308591 0.6875,-5.9375 0.6875,-5.9375 l 1.21875,-4.9375 1.84375,-4.375 2.625,-4.25 3.8125,-4.28125 4.4375,-3.90625 7.46875,-4.5 8.71875,-3.6875 10.25,-3.03125 L 222.5,5.75 224.84375,5.28125 224.375,4.875 217,3.09375 207.75,1.90625 197.5,1.6875 l 0,0"
     id="path3003"
     inkscape:connector-curvature="0"
     sodipodi:nodetypes="ccccccccccccccccccccccccccccccccccccccccccccccccccccccccccccccccccccccccccccccccccccccccccccccccccccccccccczcccccccccccccccc" />
  <path
     style="fill:#ff0000"
     d=""
     id="path3046"
     inkscape:connector-curvature="0" />
  <path
     style="fill:#ff0000"
     d=""
     id="path3048"
     inkscape:connector-curvature="0" />
  <path
     sodipodi:type="arc"
     style="fill:#ffffff"
     id="path3077"
     sodipodi:cx="112.12343"
     sodipodi:cy="106.52515"
     sodipodi:rx="5.0028825"
     sodipodi:ry="6.4743185"
     d="m 117.12631,106.52515 a 5.0028825,6.4743185 0 1 1 -10.00576,0 5.0028825,6.4743185 0 1 1 10.00576,0 z" />
  <path
     sodipodi:type="arc"
     style="fill:#ffffff"
     id="path3083"
     sodipodi:cx="-329.01309"
     sodipodi:cy="116.23663"
     sodipodi:rx="37.668762"
     sodipodi:ry="21.482967"
     d="m -291.34433,116.23663 a 37.668762,21.482967 0 1 1 -75.33752,0 37.668762,21.482967 0 1 1 75.33752,0 z" />
</svg>

<?xml version="1.0" encoding="UTF-8" standalone="no"?>
<!-- Created with Inkscape (http://www.inkscape.org/) -->

<svg
   xmlns:dc="http://purl.org/dc/elements/1.1/"
   xmlns:cc="http://creativecommons.org/ns#"
   xmlns:rdf="http://www.w3.org/1999/02/22-rdf-syntax-ns#"
   xmlns:svg="http://www.w3.org/2000/svg"
   xmlns="http://www.w3.org/2000/svg"
   xmlns:sodipodi="http://sodipodi.sourceforge.net/DTD/sodipodi-0.dtd"
   xmlns:inkscape="http://www.inkscape.org/namespaces/inkscape"
   sodipodi:docname="x.dxf"
   height="216"
   width="234"
   inkscape:version="0.48.4 r9939"
   version="1.1"
   id="svg2985">
  <sodipodi:namedview
     pagecolor="#ffffff"
     bordercolor="#666666"
     borderopacity="1"
     objecttolerance="10"
     gridtolerance="10"
     guidetolerance="10"
     inkscape:pageopacity="0"
     inkscape:pageshadow="2"
     inkscape:window-width="1360"
     inkscape:window-height="706"
     id="namedview2987"
     showgrid="false"
     inkscape:zoom="1.6990205"
     inkscape:cx="-60.853335"
     inkscape:cy="73.667516"
     inkscape:window-x="-8"
     inkscape:window-y="-8"
     inkscape:window-maximized="1"
     inkscape:current-layer="svg2985" />
  <metadata
     id="metadata2991">
    <rdf:RDF>
      <cc:Work
         rdf:about="">
        <dc:format>image/svg+xml</dc:format>
        <dc:type
           rdf:resource="http://purl.org/dc/dcmitype/StillImage" />
        <dc:title></dc:title>
      </cc:Work>
    </rdf:RDF>
  </metadata>
  <defs
     id="defs2989" />
  <path
     sodipodi:nodetypes="ccccccccccccccccccccccccccccccccccccccccccccccccccccccccccccccccccccccccccccccccccccccccccccccccccccccccccczcccccccccccccccc"
     inkscape:connector-curvature="0"
     id="path3003"
     d="M197.5 1.6875L186.9375 1.875L173.5 3.15625L160.03125 5.21875L146.75 8.03125L133.875 11.53125L121.59375 15.65625L110.125 20.3125L99.65625 25.46875L90.40625 31.0625L88.53125 32.375L83.0 34.6875L77.6875 37.4375L72.625 40.5625L67.8125 44.0625L59.03125 52.0625L51.5 61.34375L48.28125 66.375L45.40625 71.6875L42.9375 77.21875L40.84375 83.0L39.21875 88.9375L38.0 95.0625L37.75 97.25L93.59375 97.25L94.6875 95.1875L97.5625 91.75L101.0 88.875L104.96875 86.75L109.34375 85.375L114.03125 84.90625L118.71875 85.375L123.09375 86.75L127.0625 88.875L130.5 91.75L133.375 95.1875L135.5 99.15625L136.875 103.53125L137.34375 108.21875L136.875 112.90625L135.5 117.28125L133.375 121.25L130.5 124.6875L127.0625 127.53125L123.09375 129.6875L118.71875 131.03125L114.03125 131.5L109.34375 131.03125L104.96875 129.6875L101.0 127.53125L97.5625 124.6875L94.6875 121.25L92.5625 117.28125L92.46875 117.0L37.59375 117.0L38.8125 124.84375L40.96875 132.9375L43.90625 140.65625L47.59375 148.0L51.96875 154.84375L56.96875 161.1875L62.5625 167.0L62.4375 168.5L61.75 174.4375L60.5625 179.375L58.71875 183.75L56.09375 188.0L52.28125 192.28125L47.8125 196.15625L40.34375 200.65625L31.625 204.375L21.375 207.40625L9.3125 209.84375L6.96875 210.3125L7.4375 210.71875L14.8125 212.5L24.0625 213.6875L44.875 213.6875L58.34375 212.40625L71.8125 210.34375L85.09375 207.53125L97.96875 204.03125L110.25 199.90625L121.71875 195.25L132.1875 190.09375L141.4375 184.5L143.6875 182.875L149.125 180.5L154.375 177.75L164.09375 171.09375L172.71875 163.09375L180.125 153.875L186.125 143.5625L188.5625 138.0625L190.59375 132.34375L192.21875 126.46875L193.375 120.375L194.09375 114.15625L194.34375 107.78125L193.90625 99.1875L192.59375 90.84375L190.46875 82.84375L187.5625 75.1875L183.9375 67.90625L179.65625 61.09375L174.71875 54.78125L169.21875 49.0L169.375 47.09375L170.0625 41.15625L171.28125 36.21875L173.125 31.84375L175.75 27.59375L179.5625 23.3125L184.0 19.40625L191.46875 14.90625L200.1875 11.21875L210.4375 8.1875L222.5 5.75L224.84375 5.28125L224.375 4.875L217.0 3.09375L207.75 1.90625L197.5 1.6875L197.5 1.6875"
     style="fill:#000000" />
  <path
     inkscape:connector-curvature="0"
     id="path3046"
     d=""
     style="fill:#ff0000" />
  <path
     inkscape:connector-curvature="0"
     id="path3048"
     d=""
     style="fill:#ff0000" />
  <path
     d="m 117.12631,106.52515 a 5.0028825,6.4743185 0 1 1 -10.00576,0 5.0028825,6.4743185 0 1 1 10.00576,0 z"
     sodipodi:ry="6.4743185"
     sodipodi:rx="5.0028825"
     sodipodi:cy="106.52515"
     sodipodi:cx="112.12343"
     id="path3077"
     style="fill:#ffffff"
     sodipodi:type="arc" />
  <path
     d="m -291.34433,116.23663 a 37.668762,21.482967 0 1 1 -75.33752,0 37.668762,21.482967 0 1 1 75.33752,0 z"
     sodipodi:ry="21.482967"
     sodipodi:rx="37.668762"
     sodipodi:cy="116.23663"
     sodipodi:cx="-329.01309"
     id="path3083"
     style="fill:#ffffff"
     sodipodi:type="arc" />
</svg>
